X: 5266
T: Broken Windscreen, The
R: reel
M: 4/4
K: Gmajor
|:g2 dc ABcA|dgg2 dgbg|g2 dc ABcA|1 dBcA BGG2:|2 dBcA BGGB||
dgg2 bgg2|dff2 aff2|dgg2 bgag|fdcB ABcA|
dgg2 bgg2|dff2 dff2|gfga bgag|fdcA BGGd||

